Catalina-light/actions/16/draw-freehand.svg

<svg xmlns="http://www.w3.org/2000/svg" viewBox="0 0 16 16">
  <defs id="defs3051">
    <style type="text/css" id="current-color-scheme">
      .ColorScheme-Text {
        color:#363636;
      }
      </style>
  </defs>
 <path style="fill:currentColor;fill-opacity:1;stroke:none" 
     d="M 9.15625 2 L 2 9.125 L 2 12 C 3.075 12.019 4.84375 12 4.84375 12 L 12 4.84375 L 9.15625 2 z M 8.4375 4.15625 L 9.84375 5.5625 L 6.9980469 8.4375 L 5.5605469 6.9980469 L 8.4375 4.15625 z M 4.84375 7.71875 L 6.28125 9.125 L 5.5625 9.84375 L 4.15625 8.4375 L 4.84375 7.71875 z M 12.123047 9 C 11.927047 9.001 11.392547 9.0455 10.560547 9.5625 C 10.300547 9.7245 10.107547 9.9089531 9.8105469 10.126953 C 9.6525469 10.242953 9.0850469 10.620953 8.8730469 10.751953 C 8.2540469 11.134953 8.0320469 11.231953 7.4980469 11.501953 C 6.9810469 11.762953 6.4395469 12.000453 6.0605469 12.189453 C 4.4685469 12.984453 1.9960937 13.001953 1.9960938 13.001953 L 1.9960938 14.001953 C 1.9960938 14.001953 4.4935469 14.033953 6.3105469 13.126953 C 6.5515469 13.006953 6.9790469 12.808953 7.3730469 12.626953 C 7.3730469 12.626953 8.4920469 12.034203 8.4980469 12.033203 C 8.6940469 11.924203 8.8592969 11.841203 9.1542969 11.658203 C 9.3822969 11.517203 9.9292969 11.166953 10.154297 11.001953 C 10.484297 10.758953 10.697047 10.579703 10.873047 10.470703 C 11.258047 10.168703 11.693047 9.9889531 12.123047 10.001953 C 12.089047 10.001953 12.253297 10.011703 12.404297 10.095703 C 12.555297 10.179703 12.714797 10.329703 12.841797 10.470703 C 13.086797 10.802703 13.198047 11.055953 13.248047 11.501953 C 13.212047 12.808953 11.968047 13.006953 10.998047 13.001953 L 10.998047 14.001953 C 12.977047 14.090953 13.998047 13.167703 13.998047 11.470703 C 13.994047 11.182703 13.947797 10.945953 13.841797 10.626953 C 13.735797 10.307953 13.575797 9.9514531 13.341797 9.6894531 C 12.980797 9.2664531 12.799047 9.0809531 12.123047 9.0019531 L 12.123047 9 z "
     class="ColorScheme-Text"
     />
</svg>

<svg viewBox="0 0 16 16" xmlns="http://www.w3.org/2000/svg">
<defs>
<style id="current-color-scheme" type="text/css">.ColorScheme-Text {
        color:#363636;
      }</style>
</defs>
<path class="ColorScheme-Text" d="m9.1562 2-7.1562 7.125v2.875c1.075 0.019 2.8438 0 2.8438 0l7.1562-7.1562-2.8438-2.8438zm-0.71875 2.1562 1.4062 1.4062-2.8457 2.875-1.4375-1.4395 2.877-2.8418zm-3.5938 3.5625 1.4375 1.4062-0.71875 0.71875-1.4062-1.4062 0.6875-0.71875zm7.2793 1.2812c-0.196 1e-3 -0.7305 0.0455-1.5625 0.5625-0.26 0.162-0.453 0.34645-0.75 0.56445-0.158 0.116-0.7255 0.494-0.9375 0.625-0.619 0.383-0.841 0.48-1.375 0.75-0.517 0.261-1.0585 0.4985-1.4375 0.6875-1.592 0.795-4.0645 0.8125-4.0645 0.8125v1s2.4975 0.032 4.3145-0.875c0.241-0.12 0.6685-0.318 1.0625-0.5 0 0 1.119-0.59275 1.125-0.59375 0.196-0.109 0.36125-0.192 0.65625-0.375 0.228-0.141 0.775-0.49125 1-0.65625 0.33-0.243 0.54275-0.42225 0.71875-0.53125 0.385-0.302 0.82-0.48175 1.25-0.46875-0.034 0 0.13025 0.00975 0.28125 0.09375s0.3105 0.234 0.4375 0.375c0.245 0.332 0.35625 0.58525 0.40625 1.0312-0.036 1.307-1.28 1.505-2.25 1.5v1c1.979 0.089 3-0.83425 3-2.5312-4e-3 -0.288-0.05025-0.52475-0.15625-0.84375s-0.266-0.6755-0.5-0.9375c-0.361-0.423-0.54275-0.6085-1.2188-0.6875v-0.0019531z" fill="currentColor"/>
</svg>
